X: 1
T: Hole In The Bathroom Floor, The
M: 6/8
L: 1/8
R: jig
K: Gmix
|:ga2 gag | D2g a3  | gdg dAd | Ac2 d3 |
fg2 efe | Def g3  | fdc dcA | cA2 G3 :|
|:fd2 d2c | BA2 B2A | af2 d2c | BAG F2A |
GA2 B2c | cd2 f2a | ba^f g^fd | cA2 G3 :|
